X:214
T:Thro’ the Lang Muir. RH.214
R:jig
S:Rev.R.Harrison’s MS,c1815,Cumbria
O:England
A:Temple Sowerby,Cumbria
Z:vmp.Simon Wilson. Review PJH, 2008.
M:6/8
L:1/8
Q:3/8=120
K:G
Beee2d|ege dBG|Bee e2d|BAGE3:|\
|:BGG G>AG|BAG ABd|!
BAG G>AG|ABGF3|\
BAG GAG|BAG ABd|Beee2d|BAGE3:|

